dist/img/avatar.svg

<svg width="348" height="348" viewBox="0 0 348 348" fill="none" xmlns="http://www.w3.org/2000/svg">
<g clip-path="url(#clip0)">
<path d="M348 174C348.031 197.554 343.263 220.868 333.987 242.519L333.411 243.847C317.72 279.542 290.513 308.945 256.141 327.354C221.768 345.762 182.215 352.113 143.807 345.39C142.762 345.205 141.719 345.012 140.677 344.813C129.915 342.727 119.376 339.619 109.203 335.532C107.551 334.868 105.91 334.18 104.282 333.467C103.17 332.983 102.058 332.484 100.956 331.969C70.8197 318.002 45.3044 295.711 27.4175 267.722C9.53061 239.734 0.0176917 207.216 0 174C0 77.9036 77.9036 0 174 0C270.096 0 348 77.9036 348 174Z" fill="#6C63FF"/>
<path opacity="0.2" d="M143.807 345.39C142.762 345.205 141.719 345.013 140.677 344.813C139.998 325.092 137.666 284.614 129.712 242.22C125.362 219.019 119.324 195.235 110.948 173.974C108.079 166.618 104.801 159.427 101.131 152.435C92.6679 136.451 82.4029 122.994 69.9552 113.877L71.7879 111.375C82.1403 118.964 91.4444 129.616 99.6999 143.334C102.176 147.442 104.554 151.824 106.835 156.482C109.28 161.465 111.612 166.755 113.831 172.353C115.247 175.915 116.614 179.601 117.934 183.41C123.679 199.951 128.563 218.823 132.585 240.027C133.476 244.712 134.323 249.512 135.128 254.426C141.362 292.505 143.241 327.712 143.807 345.39Z" fill="black"/>
<path opacity="0.2" d="M104.282 333.467C103.17 332.983 102.058 332.484 100.956 331.969C99.8801 320.283 97.9033 305.787 94.2894 292.027C92.7067 285.846 90.6747 279.79 88.2097 273.906C84.0863 264.253 78.7479 256.048 71.8445 250.987L73.6771 248.49C80.9048 253.783 86.48 262.148 90.7888 271.934C95.6433 282.961 98.8814 295.795 101.038 308.057C102.639 317.164 103.648 325.962 104.282 333.467Z" fill="black"/>
<path opacity="0.2" d="M52.6436 113.805C61.1981 113.805 68.1329 106.871 68.1329 98.316C68.1329 89.7615 61.1981 82.8267 52.6436 82.8267C44.089 82.8267 37.1542 89.7615 37.1542 98.316C37.1542 106.871 44.089 113.805 52.6436 113.805Z" fill="black"/>
<path opacity="0.2" d="M57.6318 247.141C66.1864 247.141 73.1212 240.207 73.1212 231.652C73.1212 223.097 66.1864 216.163 57.6318 216.163C49.0773 216.163 42.1425 223.097 42.1425 231.652C42.1425 240.207 49.0773 247.141 57.6318 247.141Z" fill="black"/>
<path opacity="0.2" d="M114.137 124.334C110.852 142.865 118.103 159.644 118.103 159.644C118.103 159.644 130.68 146.379 133.964 127.848C137.249 109.317 129.998 92.5371 129.998 92.5371C129.998 92.5371 117.422 105.802 114.137 124.334Z" fill="black"/>
<path opacity="0.2" d="M62.6594 168.322C80.3348 174.786 98.0961 170.638 98.0961 170.638C98.0961 170.638 87.2 156.011 69.5246 149.548C51.8492 143.085 34.0879 147.232 34.0879 147.232C34.0879 147.232 44.984 161.859 62.6594 168.322Z" fill="black"/>
<path opacity="0.2" d="M59.6621 286.396C72.0511 290.926 84.5179 287.971 84.5179 287.971C84.5179 287.971 76.8982 277.671 64.5091 273.141C52.1201 268.61 39.6533 271.566 39.6533 271.566C39.6533 271.566 47.2731 281.866 59.6621 286.396Z" fill="black"/>
<path d="M173.643 212.532C211.107 212.532 241.477 182.161 241.477 144.697C241.477 107.234 211.107 76.863 173.643 76.863C136.179 76.863 105.808 107.234 105.808 144.697C105.808 182.161 136.179 212.532 173.643 212.532Z" fill="#D0CDE1"/>
<path d="M147.145 196.633C147.145 196.633 155.624 236.91 155.624 241.149C155.624 245.389 195.901 264.467 195.901 264.467L231.938 258.108L244.657 219.951C244.657 219.951 223.459 188.154 223.459 175.435L147.145 196.633Z" fill="#D0CDE1"/>
<path d="M333.987 242.519L333.411 243.847C317.72 279.542 290.513 308.945 256.141 327.354C221.768 345.762 182.215 352.113 143.807 345.39C142.762 345.205 141.719 345.012 140.677 344.813C129.915 342.727 119.376 339.619 109.203 335.532C107.551 334.868 105.91 334.179 104.282 333.467C103.17 332.983 102.058 332.484 100.956 331.969C90.9705 327.343 81.447 321.779 72.5137 315.352L64.4727 292.027L68.9925 288.577L78.2897 281.478L88.2098 273.906L90.7889 271.934L129.712 242.22L132.585 240.027L152.816 224.584L152.821 224.578C152.821 224.578 174.7 260.228 206.499 249.628C238.298 239.029 237.603 208.635 237.603 208.635L333.987 242.519Z" fill="#2F2E41"/>
<path d="M114.817 90.0455C114.817 90.0455 136.354 43.3817 177.634 54.1502C218.913 64.9188 242.245 81.0717 244.04 97.2245C245.835 113.377 243.143 137.607 243.143 137.607C243.143 137.607 238.656 104.404 209.939 111.583C181.223 118.762 136.354 113.377 136.354 113.377L129.175 177.989C129.175 177.989 121.099 166.323 112.125 173.502C103.151 180.681 86.1008 104.404 114.817 90.0455Z" fill="#2F2E41"/>
<path d="M109.203 335.532C107.551 334.868 105.91 334.18 104.282 333.467C103.17 332.984 102.058 332.484 100.956 331.969C84.4411 324.311 69.2267 314.115 55.8654 301.751C60.5963 295.306 64.4727 292.027 64.4727 292.027H96.2715L101.038 308.057L109.203 335.532Z" fill="#2F2E41"/>
<path d="M306.132 239.029L333.411 243.847C326.111 260.477 316.251 275.862 304.191 289.442L306.132 239.029Z" fill="#2F2E41"/>
</g>
<defs>
<clipPath id="clip0">
<rect width="348" height="348" fill="white"/>
</clipPath>
</defs>
</svg>

<svg xmlns="http://www.w3.org/2000/svg" width="348" height="348" fill="none" xmlns:v="https://vecta.io/nano"><g clip-path="url(#A)"><path d="M348 174a173.41 173.41 0 0 1-14.013 68.519l-.576 1.328a174.3 174.3 0 0 1-77.27 83.507 174.29 174.29 0 0 1-112.334 18.036l-3.13-.577a172.46 172.46 0 0 1-31.474-9.281l-4.921-2.065-3.326-1.498c-30.136-13.967-55.652-36.258-73.538-64.247A174.21 174.21 0 0 1 0 174C0 77.904 77.904 0 174 0s174 77.904 174 174z" fill="#6c63ff"/><g fill="#000"><path opacity=".2" d="M143.807 345.39l-3.13-.577c-.679-19.721-3.011-60.199-10.965-102.593-4.35-23.201-10.388-46.985-18.764-68.246a212.44 212.44 0 0 0-9.817-21.539c-8.463-15.984-18.728-29.441-31.176-38.558l1.833-2.502c10.352 7.589 19.657 18.241 27.912 31.959 2.476 4.108 4.854 8.49 7.135 13.148 2.445 4.983 4.777 10.273 6.996 15.871 1.416 3.562 2.783 7.248 4.103 11.057 5.745 16.541 10.629 35.413 14.651 56.617l2.543 14.399c6.234 38.079 8.113 73.286 8.679 90.964zm-39.525-11.923l-3.326-1.498c-1.076-11.686-3.053-26.182-6.667-39.942-1.583-6.181-3.615-12.237-6.08-18.121-4.123-9.653-9.462-17.858-16.365-22.919l1.833-2.497c7.228 5.293 12.803 13.658 17.112 23.444 4.855 11.027 8.093 23.861 10.249 36.123 1.601 9.107 2.61 17.905 3.244 25.41zM52.644 113.805c8.554 0 15.489-6.934 15.489-15.489s-6.935-15.489-15.489-15.489-15.489 6.935-15.489 15.489 6.935 15.489 15.489 15.489zm4.988 133.336a15.49 15.49 0 0 0 15.489-15.489c0-8.555-6.935-15.489-15.489-15.489s-15.489 6.934-15.489 15.489 6.935 15.489 15.489 15.489zm56.505-122.807c-3.285 18.531 3.966 35.31 3.966 35.31s12.577-13.265 15.861-31.796-3.966-35.311-3.966-35.311-12.576 13.265-15.861 31.797zm-51.478 43.988c17.675 6.464 35.437 2.316 35.437 2.316s-10.896-14.627-28.571-21.09-35.437-2.316-35.437-2.316 10.896 14.627 28.572 21.09zm-2.997 118.074c12.389 4.53 24.856 1.575 24.856 1.575s-7.62-10.3-20.009-14.83-24.856-1.575-24.856-1.575 7.62 10.3 20.009 14.83z"/></g><g fill="#d0cde1"><path d="M173.643 212.532c37.464 0 67.834-30.371 67.834-67.835s-30.37-67.834-67.834-67.834-67.835 30.371-67.835 67.834 30.371 67.835 67.835 67.835z"/><path d="M147.145 196.633s8.479 40.277 8.479 44.516 40.277 23.318 40.277 23.318l36.037-6.359 12.719-38.157s-21.198-31.797-21.198-44.516l-76.314 21.198z"/></g><g fill="#2f2e41"><path d="M333.987 242.519l-.576 1.328a174.3 174.3 0 0 1-77.27 83.507 174.29 174.29 0 0 1-112.334 18.036l-3.13-.577a172.46 172.46 0 0 1-31.474-9.281l-4.921-2.065-3.326-1.498a173.76 173.76 0 0 1-28.442-16.617l-8.041-23.325 4.52-3.45 9.297-7.099 9.92-7.572 2.579-1.972 38.923-29.714 2.873-2.193 20.231-15.443.005-.006s21.879 35.65 53.678 25.05 31.104-40.993 31.104-40.993l96.384 33.884zM114.817 90.046s21.537-46.664 62.817-35.895 64.611 26.922 66.406 43.074-.897 40.382-.897 40.382-4.487-33.203-33.204-26.024-73.585 1.794-73.585 1.794l-7.179 64.612s-8.076-11.666-17.05-4.487-26.024-69.098 2.692-83.456z"/><path d="M109.203 335.532l-4.921-2.065-3.326-1.498a174.44 174.44 0 0 1-45.091-30.218c4.731-6.445 8.607-9.724 8.607-9.724h31.799l4.766 16.03 8.165 27.475zm196.929-96.503l27.279 4.818a173.98 173.98 0 0 1-29.22 45.595l1.941-50.413z"/></g></g><defs><clipPath id="A"><path fill="#fff" d="M0 0h348v348H0z"/></clipPath></defs></svg>
